X: 20586
T: John O'Dwyer Of The Glen
R: waltz
M: 3/4
K: Bmixolydian
B4 c2|d4 c2|AB- B4-|B4 A2|G4 F2|G4 F2|GA- A4-|A2 D2 E2|D6-|D4:|
F4 D2|F4 G2|AB- B4-|B4 c2|d4 e2|d2 c2 B2|cd- d4-|d2 c2 A2|D6-|D4||
f4 g2|a4 g2|ef- f4-|f4 e2|d4 c2|d4 c2|de- e4-|e2 A2 B2|A6-|A4:|
c4 A2|c4 d2|ef- f4-|f4 g2|a4 b2|a2 g2 f2|ga- a4-|a2 g2 e2|A6-|A4||
G4 A2|B4 A2|FG- G4-|G4 F2|E4 D2|E4 D2|EF- F4-|F2 B,2 C2|B,6-|B,4:|
D4 B,2|D4 E2|FG- G4-|G4 A2|B4 c2|B2 A2 G2|AB- B4-|B2 A2 F2|B,6-|B,4||

